X: 160
T: Zai liushu
%%abc-version 2.0
%%abcx-abcm2ps-target-version 5.9.1 (29 Sep 2008)
%%abc-creator hum2abc beta
%%abcx-conversion-date 2013/10/02 07:52:29
%%abc-edited-by Helmut Schaffrath
%%humdrum-veritas 2506281014
%%humdrum-veritas-data 3640019003
%%continueall 1
%%barnumbers 0
L: 1/8
M: 2/4
K: F
c2d2 [I:setbarnb 1]| 
f g f d | 
c d c G/ A/ | 
c4 | 
G G/ A/ F E/ D/ | 
C2D F | 
C4 | 
ff2f | 
d> f d3/ f/ | 
d d G A | 
c4 | 
c c/ c/B2 | 
c c/ c/B2 | 
A fc2 | 
A DF2 | 
G G/ A/ F D | 
C2D/ C/ D/ F/ | 
C4 |]  



